assets/svg/tools/langchain.svg

<svg xmlns="http://www.w3.org/2000/svg" width="24" height="24"><g fill="#000" fill-rule="nonzero"><path d="M12 2 3 7v10l9 5 9-5V7zm0 2.236 6 3.882v7.764l-6 3.882-6-3.882V8.118z"/><path d="m12 8-4 2.5v5l4 2.5 4-2.5v-5z"/></g></svg>

<?xml version="1.0" encoding="UTF-8"?>
<svg width="24px" height="24px" viewBox="0 0 24 24" version="1.1" xmlns="http://www.w3.org/2000/svg" xmlns:xlink="http://www.w3.org/1999/xlink">
    <g stroke="none" stroke-width="1" fill="none" fill-rule="evenodd">
        <path d="M12,2 L3,7 L3,17 L12,22 L21,17 L21,7 L12,2 Z M12,4.236 L18,8.118 L18,15.882 L12,19.764 L6,15.882 L6,8.118 L12,4.236 Z" fill="#000000" fill-rule="nonzero"></path>
        <path d="M12,8 L8,10.5 L8,15.5 L12,18 L16,15.5 L16,10.5 L12,8 Z" fill="#000000" fill-rule="nonzero"></path>
    </g>
</svg>
